X: 1
T: The Kissing Bridge
T: 8x32R 3C (Romaine Butterfield, RSCDS Bk 47)
T: 1 cast, back; 1 mirrReelopp; 1 DMU; 1,2 pouss
P: McLarin's Reel
C: Traditional, from John Chambers
B: RSCDS 47-9
N: Tune for The Kissing Bridge
R: reel
Z: 2014 John Chambers <jc:trillian.mit.edu>
M: C|
L: 1/8
K: Am
A |\
"Am"EAAB cBAc | "G"Bgdg BGGB | "Am"EAAB cBca | "Em7"gedB "Am"cAAc |"Am"EAAB cBAc | "G"Bgdg BGGB | 
"Am"EAAB cBca | "Em7"gedB "Am"cA A^g ||"Am"a2a^g aee^f | "G"=g2g^f gdd^g | "Am"a2a^g aee^f | 
"Em7"=gedB "Am"cAA^g |"Am"a^gag aee^f | "G"g^fgf gddg | "Am"edeg abag | "Em7"egdB "Am"cA A |]

